dist/static/img/support/adv-1.svg

<svg width="48" height="48" viewBox="0 0 48 48" fill="none" xmlns="http://www.w3.org/2000/svg">
<g clip-path="url(#clip0_1042_3034)">
<path d="M29.9998 19.1782C31.4195 19.1782 32.8074 18.7572 33.9879 17.9684C35.1684 17.1797 36.0885 16.0585 36.6318 14.7468C37.1751 13.4351 37.3173 11.9918 37.0403 10.5993C36.7633 9.20682 36.0796 7.92774 35.0757 6.92382C34.0718 5.91989 32.7927 5.23621 31.4002 4.95922C30.0077 4.68224 28.5644 4.8244 27.2527 5.36772C25.941 5.91104 24.8199 6.83112 24.0311 8.01162C23.2423 9.19211 22.8213 10.58 22.8213 11.9998C22.8234 13.903 23.5804 15.7276 24.9261 17.0734C26.2719 18.4192 28.0966 19.1761 29.9998 19.1782V19.1782ZM29.9998 6.32129C31.1229 6.32129 32.2207 6.65433 33.1545 7.27829C34.0884 7.90224 34.8162 8.7891 35.246 9.8267C35.6758 10.8643 35.7882 12.0061 35.5691 13.1076C35.35 14.2091 34.8092 15.2209 34.015 16.015C33.2209 16.8092 32.2091 17.35 31.1076 17.5691C30.0061 17.7882 28.8643 17.6758 27.8267 17.246C26.7891 16.8162 25.9022 16.0884 25.2783 15.1545C24.6543 14.2207 24.3213 13.1229 24.3213 11.9998C24.323 10.4943 24.9218 9.05091 25.9864 7.98636C27.0509 6.92182 28.4943 6.323 29.9998 6.32129V6.32129Z" fill="white"/>
<path d="M19.6989 14.7717H20.3807C20.4374 14.7766 20.4911 14.7993 20.5341 14.8364C20.5772 14.8735 20.6074 14.9233 20.6206 14.9786C20.7903 15.5113 21.0052 16.0284 21.2629 16.5244C21.2928 16.573 21.3066 16.6299 21.3024 16.6868C21.2981 16.7437 21.276 16.7979 21.2391 16.8415L20.7543 17.3264C20.6312 17.4494 20.5548 17.6113 20.538 17.7845C20.5212 17.9577 20.5652 18.1313 20.6624 18.2756C21.4752 19.4847 22.5151 20.5246 23.7242 21.3375C23.8685 21.4348 24.042 21.4788 24.2152 21.4622C24.3884 21.4456 24.5504 21.3692 24.6735 21.2463L25.1591 20.7607C25.2027 20.7241 25.2568 20.7021 25.3137 20.6979C25.3705 20.6937 25.4272 20.7075 25.4758 20.7373C25.9718 20.9951 26.4889 21.21 27.0216 21.3796C27.0769 21.3928 27.1267 21.423 27.1638 21.4661C27.201 21.5091 27.2236 21.5628 27.2285 21.6195V22.3014C27.2285 22.4754 27.289 22.6439 27.3996 22.7782C27.5103 22.9125 27.6642 23.0041 27.8349 23.0374C29.2644 23.3211 30.7356 23.3211 32.165 23.0374C32.3358 23.0041 32.4897 22.9125 32.6003 22.7782C32.7109 22.6439 32.7714 22.4754 32.7715 22.3014V21.6195C32.7764 21.5628 32.799 21.5091 32.8361 21.4661C32.8733 21.423 32.923 21.3928 32.9784 21.3796C33.511 21.21 34.0281 20.9951 34.5241 20.7373C34.5728 20.7073 34.6296 20.6936 34.6866 20.6979C34.7436 20.7022 34.7977 20.7245 34.8413 20.7614L35.3265 21.2463C35.4497 21.3691 35.6116 21.4453 35.7847 21.462C35.9578 21.4787 36.1314 21.4348 36.2757 21.3379C37.4848 20.5247 38.5246 19.4848 39.3376 18.2756C39.4348 18.1313 39.4787 17.9577 39.462 17.7845C39.4452 17.6113 39.3687 17.4494 39.2457 17.3264L38.7604 16.8411C38.7237 16.7975 38.7017 16.7434 38.6976 16.6865C38.6934 16.6296 38.7074 16.5729 38.7374 16.5244C38.9949 16.0283 39.2097 15.5112 39.3794 14.9786C39.3925 14.9233 39.4228 14.8735 39.4659 14.8364C39.5089 14.7992 39.5626 14.7766 39.6192 14.7717H40.3011C40.4751 14.7717 40.6437 14.7112 40.778 14.6006C40.9123 14.4899 41.0039 14.336 41.0372 14.1653C41.3209 12.7358 41.3209 11.2646 41.0372 9.83519C41.0039 9.66441 40.9123 9.51053 40.778 9.3999C40.6437 9.28926 40.4751 9.22876 40.3011 9.22875H39.6192C39.5626 9.22385 39.5089 9.20122 39.4659 9.16407C39.4228 9.12693 39.3925 9.07716 39.3794 9.02184C39.2098 8.48919 38.9949 7.97205 38.737 7.47609C38.7071 7.42743 38.6933 7.37055 38.6977 7.3136C38.702 7.25664 38.7243 7.20251 38.7612 7.15895L39.2461 6.6737C39.369 6.55061 39.4453 6.38861 39.4619 6.21545C39.4786 6.04228 39.4345 5.86872 39.3373 5.72448C38.5244 4.51535 37.4845 3.47549 36.2754 2.66259C36.1311 2.56536 35.9575 2.52136 35.7843 2.53813C35.6111 2.5549 35.4491 2.6314 35.3262 2.75451L34.8409 3.23976C34.7972 3.27639 34.7432 3.29836 34.6863 3.30256C34.6295 3.30677 34.5727 3.293 34.5242 3.2632C34.0282 3.00535 33.511 2.79045 32.9784 2.62086C32.9231 2.6077 32.8733 2.57744 32.8362 2.53438C32.799 2.49132 32.7764 2.43765 32.7715 2.381V1.6991C32.7715 1.52511 32.711 1.35653 32.6003 1.22224C32.4897 1.08796 32.3358 0.996315 32.165 0.963011C30.7355 0.680298 29.2645 0.680298 27.835 0.963011C27.6642 0.996315 27.5103 1.08796 27.3997 1.22224C27.289 1.35653 27.2285 1.52511 27.2285 1.6991V2.38098C27.2236 2.43764 27.201 2.49131 27.1639 2.53437C27.1267 2.57743 27.0769 2.60769 27.0216 2.62085C26.489 2.79044 25.9718 3.00534 25.4759 3.26319C25.4272 3.293 25.3704 3.30674 25.3135 3.30247C25.2565 3.2982 25.2024 3.27613 25.1587 3.23938L24.6739 2.75451C24.5509 2.63139 24.389 2.55488 24.2158 2.53811C24.0426 2.52133 23.8689 2.56535 23.7246 2.66259C22.5155 3.47549 21.4757 4.51535 20.6628 5.72448C20.5655 5.86873 20.5214 6.04229 20.538 6.21547C20.5547 6.38864 20.631 6.55064 20.7539 6.67374L21.2395 7.15934C21.2762 7.20298 21.2982 7.25707 21.3024 7.31394C21.3066 7.3708 21.2928 7.42754 21.2629 7.47611C21.0051 7.97208 20.7902 8.48922 20.6206 9.02186C20.6074 9.07718 20.5772 9.12695 20.5341 9.16409C20.4911 9.20124 20.4374 9.22387 20.3807 9.22877H19.6989C19.5249 9.22878 19.3563 9.28928 19.222 9.39992C19.0877 9.51055 18.9961 9.66444 18.9628 9.83521C18.6791 11.2646 18.6791 12.7359 18.9628 14.1653C18.9961 14.3361 19.0877 14.4899 19.222 14.6006C19.3563 14.7112 19.5249 14.7717 19.6989 14.7717V14.7717ZM20.3353 10.7288H20.3807C20.7562 10.7251 21.1207 10.6016 21.421 10.3762C21.7214 10.1509 21.9418 9.83543 22.0503 9.47595C22.1938 9.02509 22.3756 8.58734 22.5938 8.16748C22.7721 7.83641 22.8397 7.45697 22.7869 7.08467C22.734 6.71238 22.5634 6.36676 22.3001 6.09839L22.2653 6.06399C22.7835 5.38854 23.3882 4.78401 24.0638 4.26587L24.0978 4.29956C24.366 4.56331 24.7117 4.73421 25.0841 4.7872C25.4565 4.84019 25.8361 4.77248 26.1673 4.59399C26.5871 4.37585 27.0249 4.19403 27.4757 4.05054C27.8352 3.94207 28.1506 3.7216 28.376 3.42127C28.6014 3.12093 28.7249 2.75645 28.7285 2.38098V2.33557C29.5724 2.22204 30.4277 2.22204 31.2715 2.33557V2.38098C31.2752 2.75645 31.3987 3.12093 31.624 3.42127C31.8494 3.7216 32.1648 3.94207 32.5243 4.05054C32.9752 4.19403 33.4129 4.37585 33.8328 4.59399C34.1638 4.77251 34.5434 4.84027 34.9157 4.78735C35.2881 4.73443 35.6337 4.5636 35.9019 4.29993L35.9363 4.26587C36.6118 4.78401 37.2165 5.38855 37.7348 6.06399L37.7007 6.09805C37.4371 6.36633 37.2662 6.71198 37.2132 7.08437C37.1603 7.45677 37.2279 7.83634 37.4063 8.16751C37.6244 8.58737 37.8062 9.02512 37.9497 9.47598C38.0582 9.83546 38.2787 10.1509 38.579 10.3763C38.8793 10.6016 39.2438 10.7251 39.6193 10.7288H39.6647C39.7784 11.5726 39.7784 12.4279 39.6647 13.2718H39.6193C39.2438 13.2754 38.8793 13.3989 38.579 13.6243C38.2787 13.8497 38.0582 14.1651 37.9497 14.5246C37.806 14.9754 37.6242 15.4131 37.4063 15.833C37.2279 16.1641 37.1603 16.5436 37.2132 16.9159C37.2661 17.2882 37.4368 17.6338 37.7003 17.9021L37.7348 17.9366C37.2163 18.6119 36.6116 19.2165 35.9363 19.735L35.9022 19.7009C35.634 19.4371 35.2883 19.2662 34.9159 19.2132C34.5435 19.1602 34.1639 19.228 33.8327 19.4065C33.4129 19.6246 32.9751 19.8065 32.5243 19.95C32.1648 20.0584 31.8494 20.2789 31.624 20.5792C31.3986 20.8796 31.2751 21.244 31.2715 21.6195V21.6649C30.4276 21.7785 29.5723 21.7785 28.7285 21.6649V21.6195C28.7248 21.244 28.6013 20.8796 28.376 20.5792C28.1506 20.2789 27.8352 20.0584 27.4757 19.95C27.0248 19.8065 26.5871 19.6246 26.1672 19.4065C25.8362 19.2281 25.4567 19.1604 25.0844 19.2132C24.7121 19.2661 24.3664 19.4367 24.0981 19.7002L24.0637 19.735C23.3883 19.2167 22.7837 18.612 22.2656 17.9365L22.2993 17.9024C22.5629 17.6341 22.7338 17.2885 22.7868 16.9162C22.8399 16.5438 22.7723 16.1642 22.5941 15.833C22.3759 15.4131 22.1939 14.9754 22.0503 14.5245C21.9418 14.165 21.7214 13.8496 21.421 13.6242C21.1207 13.3989 20.7562 13.2754 20.3807 13.2717H20.3353C20.2216 12.4279 20.2216 11.5726 20.3353 10.7287V10.7288Z" fill="white"/>
<path d="M29.25 15.707V16.5H30.75V15.707C31.3113 15.6133 31.8161 15.31 32.1622 14.8583C32.5084 14.4066 32.67 13.8403 32.6143 13.2739C32.5587 12.7076 32.2901 12.1836 31.8627 11.8078C31.4354 11.432 30.8812 11.2327 30.3124 11.25H29.6877C29.5841 11.2583 29.48 11.2451 29.3818 11.2112C29.2836 11.1773 29.1935 11.1234 29.1171 11.0529C29.0408 10.9825 28.9799 10.897 28.9382 10.8018C28.8965 10.7066 28.875 10.6039 28.875 10.5C28.875 10.3961 28.8965 10.2934 28.9382 10.1982C28.9799 10.103 29.0408 10.0175 29.1171 9.94708C29.1935 9.87662 29.2836 9.82274 29.3818 9.78882C29.48 9.7549 29.5841 9.74168 29.6877 9.75H30.3124C30.5195 9.74226 30.7212 9.8168 30.8735 9.95734C31.0257 10.0979 31.1162 10.293 31.125 10.5V10.7999H32.625V10.5C32.6186 9.97131 32.4277 9.46147 32.0854 9.05852C31.743 8.65558 31.2707 8.38483 30.75 8.29303V7.5H29.25V8.29303C28.6887 8.38666 28.184 8.69001 27.8379 9.14171C27.4917 9.59341 27.3301 10.1597 27.3857 10.7261C27.4414 11.2924 27.71 11.8164 28.1374 12.1922C28.5647 12.568 29.1189 12.7673 29.6877 12.75H30.3124C30.416 12.7417 30.5201 12.7549 30.6183 12.7888C30.7165 12.8227 30.8066 12.8766 30.883 12.9471C30.9593 13.0175 31.0202 13.103 31.0619 13.1982C31.1036 13.2934 31.1251 13.3961 31.1251 13.5C31.1251 13.6039 31.1036 13.7066 31.0619 13.8018C31.0202 13.897 30.9593 13.9825 30.883 14.0529C30.8066 14.1234 30.7165 14.1773 30.6183 14.2112C30.5201 14.2451 30.416 14.2583 30.3124 14.25H29.6877C29.4806 14.2577 29.2789 14.1832 29.1266 14.0427C28.9743 13.9021 28.8839 13.707 28.875 13.5V13.2001H27.375V13.5C27.3815 14.0287 27.5724 14.5385 27.9147 14.9415C28.257 15.3444 28.7293 15.6152 29.25 15.707V15.707Z" fill="white"/>
<path d="M1.16682 20.9227C6.30971 23.4368 11.6 25.6375 17.0087 27.5127C23.9718 30.0185 31.1973 31.7239 38.546 32.596L38.1831 34.3487C38.1554 34.4827 38.1649 34.6217 38.2105 34.7507C38.2562 34.8797 38.3362 34.9937 38.442 35.0805C38.5478 35.1672 38.6753 35.2234 38.8107 35.243C38.9461 35.2625 39.0843 35.2447 39.2103 35.1914L46.6748 32.0288C46.788 31.9808 46.8878 31.9057 46.9652 31.8101C47.0426 31.7145 47.0953 31.6013 47.1186 31.4805C47.142 31.3597 47.1352 31.2351 47.099 31.1175C47.0628 30.9999 46.9982 30.8931 46.911 30.8063L41.3896 25.3132C41.2911 25.2153 41.1674 25.1466 41.0322 25.1149C40.897 25.0832 40.7557 25.0896 40.624 25.1334C40.4922 25.1773 40.3752 25.2569 40.286 25.3633C40.1969 25.4697 40.139 25.5988 40.1188 25.7362L39.8628 27.4794C33.0553 26.7147 26.5386 25.1638 18.2414 22.3425C12.6576 20.3937 7.19892 18.1034 1.89631 15.4844C1.78277 15.4268 1.65642 15.3991 1.52919 15.4038C1.40196 15.4086 1.27803 15.4456 1.16908 15.5115C1.06012 15.5774 0.969731 15.6699 0.906421 15.7804C0.84311 15.8908 0.808965 16.0156 0.807201 16.1429L0.750074 20.2401C0.748089 20.3816 0.786165 20.5207 0.859907 20.6415C0.933648 20.7623 1.04005 20.8598 1.16682 20.9227V20.9227ZM2.29036 17.3551C7.32174 19.7804 12.4861 21.9197 17.7587 23.7626C26.4577 26.7205 33.2355 28.3015 40.4224 29.0485C40.6149 29.0686 40.8076 29.0135 40.9604 28.8948C41.1131 28.776 41.214 28.6028 41.242 28.4113L41.3867 27.4262L45.0623 31.0828L39.942 33.2523L40.1822 32.0914C40.2034 31.9887 40.2028 31.8828 40.1806 31.7803C40.1583 31.6779 40.1148 31.5812 40.0529 31.4966C39.991 31.412 39.9121 31.3414 39.8212 31.2891C39.7303 31.2369 39.6295 31.2043 39.5252 31.1934C32.3306 30.4453 25.9468 28.9676 17.4914 26.0925C12.2945 24.2898 7.20751 22.1845 2.25663 19.7874L2.29036 17.3551Z" fill="white"/>
<path d="M7.5 29.25C7.30109 29.25 7.11032 29.329 6.96967 29.4697C6.82902 29.6103 6.75 29.8011 6.75 30V46.5C6.75 46.6989 6.82902 46.8897 6.96967 47.0303C7.11032 47.171 7.30109 47.25 7.5 47.25H13.5C13.6989 47.25 13.8897 47.171 14.0303 47.0303C14.171 46.8897 14.25 46.6989 14.25 46.5V30C14.25 29.8011 14.171 29.6103 14.0303 29.4697C13.8897 29.329 13.6989 29.25 13.5 29.25H7.5ZM12.75 45.75H8.25V30.75H12.75V45.75Z" fill="white"/>
<path d="M16.5 32.25C16.3011 32.25 16.1103 32.329 15.9697 32.4697C15.829 32.6103 15.75 32.8011 15.75 33V46.5C15.75 46.6989 15.829 46.8897 15.9697 47.0303C16.1103 47.171 16.3011 47.25 16.5 47.25H22.5C22.6989 47.25 22.8897 47.171 23.0303 47.0303C23.171 46.8897 23.25 46.6989 23.25 46.5V33C23.25 32.8011 23.171 32.6103 23.0303 32.4697C22.8897 32.329 22.6989 32.25 22.5 32.25H16.5ZM21.75 45.75H17.25V33.75H21.75V45.75Z" fill="white"/>
<path d="M25.5 36C25.3011 36 25.1103 36.079 24.9697 36.2197C24.829 36.3603 24.75 36.5511 24.75 36.75V46.5C24.75 46.6989 24.829 46.8897 24.9697 47.0303C25.1103 47.171 25.3011 47.25 25.5 47.25H31.5C31.6989 47.25 31.8897 47.171 32.0303 47.0303C32.171 46.8897 32.25 46.6989 32.25 46.5V36.75C32.25 36.5511 32.171 36.3603 32.0303 36.2197C31.8897 36.079 31.6989 36 31.5 36H25.5ZM30.75 45.75H26.25V37.5H30.75V45.75Z" fill="white"/>
<path d="M34.5 38.25C34.3011 38.25 34.1103 38.329 33.9697 38.4697C33.829 38.6103 33.75 38.8011 33.75 39V46.5C33.75 46.6989 33.829 46.8897 33.9697 47.0303C34.1103 47.171 34.3011 47.25 34.5 47.25H40.5C40.6989 47.25 40.8897 47.171 41.0303 47.0303C41.171 46.8897 41.25 46.6989 41.25 46.5V39C41.25 38.8011 41.171 38.6103 41.0303 38.4697C40.8897 38.329 40.6989 38.25 40.5 38.25H34.5ZM39.75 45.75H35.25V39.75H39.75V45.75Z" fill="white"/>
<path d="M9.95997 5.64075C11.8749 6.33069 14.2582 7.18982 15.589 7.48242L15.9113 6.01758C14.6753 5.74548 12.244 4.86951 10.4686 4.22973C10.0262 4.07043 9.61316 3.92139 9.25025 3.79284C8.5127 3.53173 7.76819 3.24534 7.03833 2.94141L6.46191 4.32641C7.21668 4.64062 7.98645 4.93691 8.75 5.20715L9.95997 5.64075Z" fill="white"/>
<path d="M5.56348 2.29541C5.04823 2.05774 4.55677 1.81995 4.08912 1.58203L3.41016 2.91943C3.89355 3.16479 4.4021 3.41089 4.93579 3.65772L5.56348 2.29541Z" fill="white"/>
<path d="M10.7502 12.7928C10.0127 12.5317 9.26819 12.2453 8.53833 11.9414L7.96191 13.3264C8.71668 13.6406 9.48645 13.9369 10.25 14.2071L11.46 14.6407C13.3749 15.3307 15.7582 16.1898 17.089 16.4824L17.4113 15.0176C16.1753 14.7455 13.744 13.8695 11.9686 13.2297C11.5262 13.0704 11.1132 12.9214 10.7502 12.7928Z" fill="white"/>
<path d="M6.48923 12.6826L7.11548 11.3196C6.58118 11.0742 6.07215 10.827 5.58912 10.582L4.91016 11.9194C5.41002 12.1732 5.93637 12.4276 6.48923 12.6826Z" fill="white"/>
</g>
<defs>
<clipPath id="clip0_1042_3034">
<rect width="48" height="48" fill="white"/>
</clipPath>
</defs>
</svg>

<svg width="48" height="48" viewBox="0 0 48 48" fill="none" xmlns="http://www.w3.org/2000/svg"><g clip-path="url(#clip0_1042_3034)" fill="#fff"><path d="M30 19.178A7.178 7.178 0 1022.82 12 7.187 7.187 0 0030 19.178zm0-12.857A5.678 5.678 0 1124.32 12 5.685 5.685 0 0130 6.32z"/><path d="M19.699 14.772h.682a.27.27 0 01.24.207c.17.532.384 1.05.642 1.545a.272.272 0 01-.024.317l-.485.485a.75.75 0 00-.092.95 11.258 11.258 0 003.062 3.061.75.75 0 00.95-.09l.485-.486a.272.272 0 01.317-.024 9.795 9.795 0 001.546.643.27.27 0 01.207.24v.681a.75.75 0 00.606.736c1.43.284 2.9.284 4.33 0a.75.75 0 00.607-.736v-.681a.27.27 0 01.206-.24 9.798 9.798 0 001.546-.643.27.27 0 01.317.024l.486.485a.751.751 0 00.949.092 11.265 11.265 0 003.062-3.062.75.75 0 00-.092-.95l-.486-.485a.27.27 0 01-.023-.317 9.84 9.84 0 00.642-1.545.27.27 0 01.24-.207h.682a.75.75 0 00.736-.607c.284-1.43.284-2.9 0-4.33a.75.75 0 00-.736-.606h-.682a.27.27 0 01-.24-.207 9.786 9.786 0 00-.642-1.546.27.27 0 01.024-.317l.485-.485a.75.75 0 00.091-.95 11.26 11.26 0 00-3.062-3.061.75.75 0 00-.949.092l-.485.485a.272.272 0 01-.317.023 9.793 9.793 0 00-1.546-.642.27.27 0 01-.206-.24v-.682a.75.75 0 00-.607-.736c-1.43-.283-2.9-.283-4.33 0a.75.75 0 00-.607.736v.682a.27.27 0 01-.206.24c-.533.17-1.05.384-1.546.642a.272.272 0 01-.317-.024l-.485-.484a.75.75 0 00-.95-.092 11.259 11.259 0 00-3.061 3.061.75.75 0 00.09.95l.486.485a.271.271 0 01.024.317 9.796 9.796 0 00-.642 1.546.27.27 0 01-.24.207h-.682a.75.75 0 00-.736.606 11.11 11.11 0 000 4.33.75.75 0 00.736.607zm.636-4.043h.046a1.762 1.762 0 001.67-1.253c.143-.45.325-.889.543-1.309a1.762 1.762 0 00-.294-2.069l-.035-.034a9.73 9.73 0 011.799-1.798l.034.034a1.76 1.76 0 002.07.294c.42-.218.857-.4 1.308-.543a1.762 1.762 0 001.253-1.67v-.045a9.536 9.536 0 012.543 0v.045a1.763 1.763 0 001.252 1.67c.451.143.889.325 1.309.543a1.76 1.76 0 002.069-.294l.034-.034a9.736 9.736 0 011.799 1.798l-.034.034a1.762 1.762 0 00-.295 2.07c.218.42.4.857.544 1.308a1.763 1.763 0 001.67 1.253h.045a9.58 9.58 0 010 2.543h-.046a1.761 1.761 0 00-1.67 1.253 8.34 8.34 0 01-.543 1.308 1.76 1.76 0 00.294 2.07l.035.034a9.766 9.766 0 01-1.799 1.798l-.034-.034a1.76 1.76 0 00-2.07-.294c-.42.218-.857.4-1.308.543a1.762 1.762 0 00-1.253 1.67v.045a9.53 9.53 0 01-2.543 0v-.046a1.763 1.763 0 00-1.252-1.669 8.299 8.299 0 01-1.309-.543 1.761 1.761 0 00-2.069.293l-.034.035a9.736 9.736 0 01-1.798-1.799l.033-.034a1.762 1.762 0 00.295-2.069 8.3 8.3 0 01-.544-1.309 1.762 1.762 0 00-1.67-1.252h-.045a9.522 9.522 0 010-2.543z"/><path d="M29.25 15.707v.793h1.5v-.793a2.245 2.245 0 00-.438-4.457h-.624a.753.753 0 110-1.5h.624a.784.784 0 01.813.75v.3h1.5v-.3a2.269 2.269 0 00-1.875-2.207V7.5h-1.5v.793a2.244 2.244 0 00.438 4.457h.624a.753.753 0 110 1.5h-.624a.784.784 0 01-.813-.75v-.3h-1.5v.3a2.27 2.27 0 001.875 2.207zM1.167 20.923a141.94 141.94 0 0015.842 6.59 97.558 97.558 0 0021.537 5.083l-.363 1.753a.75.75 0 001.027.842l7.465-3.162a.75.75 0 00.236-1.223l-5.521-5.493a.75.75 0 00-1.271.423l-.256 1.743c-6.808-.764-13.324-2.315-21.622-5.136a144.237 144.237 0 01-16.345-6.859.75.75 0 00-1.089.659L.75 20.24a.75.75 0 00.417.683zm1.123-3.568a148.35 148.35 0 0015.469 6.408c8.699 2.957 15.477 4.538 22.663 5.285a.75.75 0 00.82-.637l.145-.985 3.675 3.657-5.12 2.17.24-1.162a.751.751 0 00-.657-.898c-7.194-.748-13.578-2.225-22.034-5.1a140.984 140.984 0 01-15.234-6.306l.033-2.432zM7.5 29.25a.75.75 0 00-.75.75v16.5a.75.75 0 00.75.75h6a.75.75 0 00.75-.75V30a.75.75 0 00-.75-.75h-6zm5.25 16.5h-4.5v-15h4.5v15zm3.75-13.5a.75.75 0 00-.75.75v13.5a.75.75 0 00.75.75h6a.75.75 0 00.75-.75V33a.75.75 0 00-.75-.75h-6zm5.25 13.5h-4.5v-12h4.5v12zM25.5 36a.75.75 0 00-.75.75v9.75a.75.75 0 00.75.75h6a.75.75 0 00.75-.75v-9.75a.75.75 0 00-.75-.75h-6zm5.25 9.75h-4.5V37.5h4.5v8.25zm3.75-7.5a.75.75 0 00-.75.75v7.5a.75.75 0 00.75.75h6a.75.75 0 00.75-.75V39a.75.75 0 00-.75-.75h-6zm5.25 7.5h-4.5v-6h4.5v6zM9.96 5.64c1.915.69 4.298 1.55 5.629 1.842l.322-1.464c-1.236-.273-3.667-1.148-5.442-1.788-.443-.16-.856-.309-1.219-.437a43.836 43.836 0 01-2.212-.852l-.576 1.385c.755.315 1.524.61 2.288.881l1.21.434zM5.563 2.295a42.656 42.656 0 01-1.474-.713L3.41 2.919c.484.246.992.492 1.526.739l.627-1.363zm5.187 10.498a43.871 43.871 0 01-2.212-.852l-.576 1.385c.755.315 1.524.61 2.288.881l1.21.434c1.915.69 4.298 1.549 5.629 1.841l.322-1.464c-1.236-.273-3.667-1.149-5.442-1.788-.443-.16-.856-.309-1.219-.437zm-4.26-.11l.625-1.363a43.633 43.633 0 01-1.526-.738l-.679 1.337a45.4 45.4 0 001.58.764z"/></g><defs><clipPath id="clip0_1042_3034"><path fill="#fff" d="M0 0h48v48H0z"/></clipPath></defs></svg>
